X:1
T:Retreat, LM
T:Retreat, LM
T:Thomas Hastings, 1842
T:Public Domain Courtesy of the Cyber Hymnal™
C:Thomas Hastings, 1842
Z:Public Domain
Z:Courtesy of the Cyber Hymnal™
%%score 1 ( 2 3 )
L:1/8
M:6/4
K:Bb
V:1 treble 
V:2 bass 
V:3 bass 
V:1
 ([B,D][CE]) | [DF]4 [DF]2 [DF]2 [CE]2 [B,D]2 | [B,G]4 [EG]2 [DF]4 ([CA][DB]) | %3
 [Ec]4 [Ec]2 [Ec]2 [DB]2 [CA]2 | [DB]4 [Fd]2 [Fc]4 [Fc]2 | [Fd]4 [Fc]2 [DB]4 [EG]2 | %6
 [DF]4 [B,D]2 [A,C]4 ([B,D][CE]) | [DF]4 [DF]2 [DF]2 [CE]2 [B,D]2 | [B,G]6 [EA]6 | [DB]6- [DB]4 |] %10
V:2
 [B,,F,]2 | [B,,B,]4 [B,,B,]2 [B,,B,]4 [B,,F,]2 | E,4 [E,B,]2 [B,,B,]4 (CB,) | %3
 [F,A,]4 [F,A,]2 (A,2 B,2) [F,C]2 | [B,,B,]4 [B,,B,]2 [F,A,]4 [F,A,]2 | %5
 [B,,B,]4 [F,A,]2 [G,B,]4 [E,B,]2 | [B,,B,]4 F,2 F,4 [B,,F,]2 | [B,,B,]4 [B,,B,]2 B,4 [B,,F,]2 | %8
 [E,B,]6 [F,C]6 | [B,,B,]6- [B,,B,]4 |] %10
V:3
 x2 | x12 | x10 F,2 | x6 F,4 x2 | x12 | x12 | x4 (D,E,) F,4 x2 | x6 (B,,2 C,2) x2 | x12 | x10 |] %10

